packages/katcn/src/icons/svg/stand-1.svg

<svg width="24" height="25" viewBox="0 0 24 25" fill="none" xmlns="http://www.w3.org/2000/svg">
<path d="M19.4823 3.80801H13.052V3.20801C13.052 2.60801 12.6501 2.20801 12.0473 2.20801C11.4445 2.20801 11.0426 2.60801 11.0426 3.20801V3.80801H4.6123C3.20568 3.80801 2 5.00801 2 6.50801V14.708C2 16.208 3.20568 17.308 4.6123 17.308H6.1194L3.70804 20.608C3.40662 21.108 3.5071 21.708 3.90899 22.008C4.21041 22.108 4.41135 22.208 4.6123 22.208C4.91372 22.208 5.21514 22.108 5.41608 21.808L8.63122 17.308H11.0426V21.208C11.0426 21.808 11.4445 22.208 12.0473 22.208C12.6501 22.208 13.052 21.808 13.052 21.208V17.308H15.4634L18.6785 21.808C18.8795 22.108 19.1809 22.208 19.4823 22.208C19.6833 22.208 19.8842 22.108 20.0852 22.008C20.5875 21.708 20.688 21.108 20.2861 20.608L17.8747 17.308H19.3818C20.8889 17.308 21.9941 16.108 21.9941 14.708V6.50801C22.0946 5.00801 20.8889 3.80801 19.4823 3.80801Z" fill="black"/>
</svg>

<svg xmlns="http://www.w3.org/2000/svg" fill="none" viewBox="0 0 24 25"><path fill="#000" d="M19.482 3.808h-6.43v-.6c0-.6-.402-1-1.005-1s-1.004.4-1.004 1v.6h-6.43C3.205 3.808 2 5.008 2 6.508v8.2c0 1.5 1.206 2.6 2.612 2.6H6.12l-2.411 3.3c-.301.5-.2 1.1.201 1.4.301.1.502.2.703.2.302 0 .603-.1.804-.4l3.215-4.5h2.412v3.9c0 .6.402 1 1.004 1 .603 0 1.005-.4 1.005-1v-3.9h2.411l3.216 4.5c.2.3.502.4.803.4.201 0 .402-.1.603-.2.502-.3.603-.9.201-1.4l-2.411-3.3h1.507c1.507 0 2.612-1.2 2.612-2.6v-8.2c.1-1.5-1.105-2.7-2.512-2.7"/></svg>
